!!!Genre:	Freylekhs
!!!Mode:	Minor
!!!Listening/dance:	dance
!!!:	*g:dor
!!!One_Mode:	no
**kern
*I"P1
*clefG2
*k[b-e-]
*g:dor
=14||
*>B
*k[b-]
8gL
16ffL
16eeJJ
16ffLL
16ee
16dd
16cc#XJJ
=15
4dd
16cc#XLL
16b-
16a
16gJJ
=16
8gL
16ffL
16eeJJ
16ffLL
16ee
16dd
16cc#XJJ
=17
4dd
16r
16dLL
16g
16b-JJ
=18
16ddLL
16cc#X
16b-
16aJJ
16gLL
16d
16g
16b-JJ
=19
16ddLL
16cc#X
16b-
16aJJ
16gLL
16d
16g
16b-JJ
=20
16ddLL
16cc#X
16b-
16aJJ
16gLL
16a
16b-
16gJJ
=21
4.a
8r
*>eM
*-
